img/entry-bg.svg

<svg xmlns="http://www.w3.org/2000/svg" width="2893" height="1067" fill="none"><path fill="#fff" d="M2195 653h698v356h-698z"/><path fill="#fff" d="M1736 641h469v127h-469z"/><path fill="#fff" d="M1908 758h297v118h-297z"/><path fill="#fff" d="M2068 859h137v92h-137zM336 479h936v139H336zM1370 474h1523v183H1370z"/><path fill="#fff" d="M0 0h2893v504H0z"/><path fill="#009BD0" d="M0 401.321v101.731l63.388 31.246c34.748 17.109 74.603 36.677 88.322 43.336 191.965 93.534 345.077 142.914 489.677 157.871 38.954 4.098 92.227 5.123 130.68 2.766 66.593-4.302 117.463-12.293 252.853-39.954 118.96-24.383 161.22-31.554 217.8-37.394 33.85-3.585 56.58-4.712 91.12-4.712 70.4 0 126.18 8.81 193.17 30.324 84.82 27.354 166.03 66.591 314.54 152.033 172.53 99.271 239.13 133.591 315.43 162.682 99.54 37.91 199.88 58.19 320.65 64.75 25.03 1.33 102.44 1.33 129.07 0 61.49-3.07 91.03-6.04 212.4-21 38.95-4.82 71.5-8.71 72.3-8.71 1.4 0 1.6-3.79 1.6-33.81 0-18.642-.4-33.804-.8-33.804-.5 0-24.74 3.688-53.88 8.196-143.59 22.333-167.23 25.308-239.23 29.808-24.73 1.54-91.92 1.54-115.66 0-161.42-10.446-285.79-49.888-421.08-133.485-56.98-35.242-105.04-68.333-213.29-146.808-59.49-43.13-112.76-80.114-150.21-104.189-126.38-81.241-217-118.327-313.43-128.366-36.45-3.791-84.02-3.074-128.78 2.048-60.19 6.864-103.45 15.982-231.32 48.663-80.914 20.694-105.749 26.636-146.104 34.73-62.887 12.498-104.445 17.006-155.215 16.801-44.061-.102-68.495-2.151-110.152-9.118-100.94-16.904-203.381-53.58-324.95-116.175-54.575-28.173-91.426-49.687-204.282-119.147C38.854 323.461 1.202 300.308.801 300.001c-.5-.205-.801 45.384-.801 101.32Z"/></svg>

<svg width="2893" height="1067" viewBox="0 0 2893 1067" fill="none" xmlns="http://www.w3.org/2000/svg">
<rect x="2195" y="653" width="698" height="356" fill="white"/>
<rect x="1736" y="641" width="469" height="127" fill="white"/>
<rect x="1908" y="758" width="297" height="118" fill="white"/>
<rect x="2068" y="859" width="137" height="92" fill="white"/>
<rect x="336" y="479" width="936" height="139" fill="white"/>
<rect x="1370" y="474" width="1523" height="183" fill="white"/>
<rect width="2893" height="504" fill="white"/>
<path d="M0 401.321V503.052L63.3876 534.298C98.1357 551.407 137.991 570.975 151.71 577.634C343.675 671.168 496.787 720.548 641.387 735.505C680.341 739.603 733.614 740.628 772.067 738.271C838.66 733.969 889.53 725.978 1024.92 698.317C1143.88 673.934 1186.14 666.763 1242.72 660.923C1276.57 657.338 1299.3 656.211 1333.84 656.211C1404.24 656.211 1460.02 665.021 1527.01 686.535C1611.83 713.889 1693.04 753.126 1841.55 838.568C2014.08 937.839 2080.68 972.159 2156.98 1001.25C2256.52 1039.16 2356.86 1059.44 2477.63 1066C2502.66 1067.33 2580.07 1067.33 2606.7 1066C2668.19 1062.93 2697.73 1059.96 2819.1 1045C2858.05 1040.18 2890.6 1036.29 2891.4 1036.29C2892.8 1036.29 2893 1032.5 2893 1002.48C2893 983.838 2892.6 968.676 2892.2 968.676C2891.7 968.676 2867.46 972.364 2838.32 976.872C2694.73 999.205 2671.09 1002.18 2599.09 1006.68C2574.36 1008.22 2507.17 1008.22 2483.43 1006.68C2322.01 996.234 2197.64 956.792 2062.35 873.195C2005.37 837.953 1957.31 804.862 1849.06 726.387C1789.57 683.257 1736.3 646.273 1698.85 622.198C1572.47 540.957 1481.85 503.871 1385.42 493.832C1348.97 490.041 1301.4 490.758 1256.64 495.88C1196.45 502.744 1153.19 511.862 1025.32 544.543C944.406 565.237 919.571 571.179 879.216 579.273C816.329 591.771 774.771 596.279 724.001 596.074C679.94 595.972 655.506 593.923 613.849 586.956C512.909 570.052 410.468 533.376 288.899 470.781C234.324 442.608 197.473 421.094 84.617 351.634C38.8537 323.461 1.20166 300.308 0.801108 300.001C0.300415 299.796 0 345.385 0 401.321Z" fill="#009BD0"/>
</svg>
